!!!COM: Beethoven, Ludwig van
!!!CDT: 1770///-1827///
!!!ODT: 1798///-1800///
!!!OTL: String Quartet No. 3 in D Major, Op. 18, No. 3
!!!OPS: Op. 18
!!!ONM: No. 3
!!!OMV: Mvmt. 3
!!!OMD: Allegro
!!!PDT: 1801///
!!!PPP: Vienna
!!!PPR: C. Haslinger qm Tobias
!!!ODE: Dem F&uuml;rsten von Lobkowitz gewidmet
!!!MPD: 1798///-1800///
**kern	**dynam	**kern	**dynam	**kern	**dynam	**kern	**dynam
*staff4	*staff4	*staff3	*staff3	*staff2	*staff2	*staff1	*staff1
*Icello	*Icello	*Iviola	*Iviola	*Ivioln	*Ivioln	*Ivioln	*Ivioln
*>[A,A,B,B,C,C,D]	*>[A,A,B,B,C,C,D]	*>[A,A,B,B,C,C,D]	*>[A,A,B,B,C,C,D]	*>[A,A,B,B,C,C,D]	*>[A,A,B,B,C,C,D]	*>[A,A,B,B,C,C,D]	*>[A,A,B,B,C,C,D]
*>norep[A,B,C,D]	*>norep[A,B,C,D]	*>norep[A,B,C,D]	*>norep[A,B,C,D]	*>norep[A,B,C,D]	*>norep[A,B,C,D]	*>norep[A,B,C,D]	*>norep[A,B,C,D]
*>A	*>A	*>A	*>A	*>A	*>A	*>A	*>A
*clefF4	*clefF4	*clefC3	*clefC3	*clefG2	*clefG2	*clefG2	*clefG2
*k[f#c#]	*k[f#c#]	*k[f#c#]	*k[f#c#]	*k[f#c#]	*k[f#c#]	*k[f#c#]	*k[f#c#]
*D:	*D:	*D:	*D:	*D:	*D:	*D:	*D:
*M3/4	*M3/4	*M3/4	*M3/4	*M3/4	*M3/4	*M3/4	*M3/4
*MM152	*MM152	*MM152	*MM152	*MM152	*MM152	*MM152	*MM152
4r	.	4r	.	4r	.	4f#/	p
=1	=1	=1	=1	=1	=1	=1	=1
(2.D\	p	(2.D/	p	2A/	p	[2.f#/	.
.	.	.	.	4A#/	.	.	.
=2	=2	=2	=2	=2	=2	=2	=2
[2.GG/)	.	2.G/)	.	2.B/	.	4f#/]	.
.	.	.	.	.	.	4g/	.
.	.	.	.	.	.	4e/	.
=3	=3	=3	=3	=3	=3	=3	=3
4GG/]	.	4E/	.	4A/	.	4d/	.
4GG/	.	(4E/	.	4A/	.	4c#/	.
8FF#/L	.	4F#/)	.	4A/	.	4d/	.
8DD/J	.	.	.	.	.	.	.
=4	=4	=4	=4	=4	=4	=4	=4
4AA/	.	4A/	.	4d/	.	4f#/	.
4r	.	4r	.	4c#/	.	4e/	.
4r	.	4r	.	4r	.	4f#/	.
=5	=5	=5	=5	=5	=5	=5	=5
(2.D\	.	(2.A/	.	[2.d/	.	2f#/	.
.	.	.	.	.	.	[4g/	<
=6	=6	=6	=6	=6	=6	=6	=6
2BB/)	<	2B/)	<	2d/]	<	4g/]	.
.	.	.	.	.	.	4f#/	>
4BB/	>	4B/	>	4d/	>	4e#/	.
=7	=7	=7	=7	=7	=7	=7	=7
4AA/	.	4A/	.	4c#/	.	2f#/	.
4FF#/	.	(4A/	.	4c#/	.	.	.
4CC#/	.	4B/)	.	4e#/	.	8a/L	.
.	.	.	.	.	.	8g#/J	.
=8	=8	=8	=8	=8	=8	=8	=8
4FF#/	.	4A/	.	4f#/	.	4f#/	.
4r	.	4r	.	4r	.	4r	.
=!|:	=!|:	=!|:	=!|:	=!|:	=!|:	=!|:	=!|:
*>B	*>B	*>B	*>B	*>B	*>B	*>B	*>B
4r	.	4r	.	[4f#/	.	[4a/	.
=9	=9	=9	=9	=9	=9	=9	=9
(2B\	.	[2.B/	.	4f#/]	.	4a/]	.
.	.	.	.	4e/	.	4g/	.
4A\	.	.	.	4d#/	.	4f#/	.
=10	=10	=10	=10	=10	=10	=10	=10
4G\	.	(4B/]	.	4e/	.	4g/	.
4F#\	.	4A/	.	4f#/	.	4a/	.
4E\)	.	4G/)	.	4g/	.	4b\	.
=11	=11	=11	=11	=11	=11	=11	=11
[2.D\	.	4F#/	.	4a/	.	4ccn\	.
.	.	(4D/	.	4b\	.	4dd\	.
.	.	4cn\)	.	4ccn\	.	4ee\	.
=12	=12	=12	=12	=12	=12	=12	=12
2D\]	.	2cn\	.	2f#/	.	2a/	.
4r	.	4r	.	4r	.	4b\	pp
=13	=13	=13	=13	=13	=13	=13	=13
(2.G\	pp	(2.G/	pp	2d/	pp	[2.b\	.
.	.	.	.	4d#/	.	.	.
=14	=14	=14	=14	=14	=14	=14	=14
[2.Cn/)	.	2.cn\)	.	2.e/	.	4b\]	.
.	.	.	.	.	.	4ccn\	.
.	.	.	.	.	.	4a/	.
=15	=15	=15	=15	=15	=15	=15	=15
4C/]	.	4A/	.	4d/	.	4g/	.
4Cn/	.	(4A/	.	4d/	.	4f#/	.
8BB/L	.	4B/)	.	4d/	.	4g/	.
8GG/J	.	.	.	.	.	.	.
=16	=16	=16	=16	=16	=16	=16	=16
4D\	.	4d\	.	4g/	.	4b\	.
4r	.	4r	.	4f#/	.	4a/	.
4F#\	.	4d\	.	4d/	.	4a#/	.
=17	=17	=17	=17	=17	=17	=17	=17
4G\	.	4d\	.	4d/	.	4ccn\	.
4r	.	4r	.	4r	.	4b\	.
4E\	.	4A/	.	4g/	.	4cc#\	.
=18	=18	=18	=18	=18	=18	=18	=18
4F#\	.	4A/	.	4a/	.	4ee\	.
4r	.	4r	.	4r	.	4dd\	.
4C#/	.	4A/	.	4e/	.	4ee\	.
=19	=19	=19	=19	=19	=19	=19	=19
4D\	.	4A/	.	4g/	.	4gg\	.
4r	.	4r	.	4f#/	.	4ff#\	.
4E\	.	4dd\	.	4g/	.	4gg\	.
=20	=20	=20	=20	=20	=20	=20	=20
2.E#\	<	[2.d\ [2.dd\	<	[2.g#/	<	[2.gg#\	<
=21	=21	=21	=21	=21	=21	=21	=21
[2.F#\	<	2.d\_ 2.dd\_	<	2.g#/]	<	2.gg#\]	<
=22	=22	=22	=22	=22	=22	=22	=22
2F#\]	p	2d\] 2dd\]	p	2a/	p	2aa\	p
4r	.	4r	.	4a#/	.	4aa#\	.
=23	=23	=23	=23	=23	=23	=23	=23
2.r	.	2.r	.	2.a#/	.	2.aa#\	.
=24	=24	=24	=24	=24	=24	=24	=24
2.r	.	2.r	.	4b\	.	4bb\	.
.	.	.	.	4g/	.	4gg\	.
.	.	.	.	4f#/	.	4ff#\	.
=25	=25	=25	=25	=25	=25	=25	=25
(2.G\	<	(2.B/	.	2.e#/	<	2.ee#\	<
=26	=26	=26	=26	=26	=26	=26	=26
4F#\)	>	4A#/)	<	4f#/	>	4ff#\	>
4r	.	4r	.	4r	.	4r	.
4r	.	4r	.	4a#/	.	4aa#\	.
=27	=27	=27	=27	=27	=27	=27	=27
2.r	.	2.r	.	2.a#/	.	2.aa#\	.
=28	=28	=28	=28	=28	=28	=28	=28
2.r	.	2.r	.	4b\	.	4bb\	.
.	.	.	.	4g/	.	4gg\	.
.	.	.	.	4e/	.	4ee\	.
=29	=29	=29	=29	=29	=29	=29	=29
[2.GG/	<	[2.A/	<	2.d/	<	2.dd\	<
=30	=30	=30	=30	=30	=30	=30	=30
2GG/]	>	4A/]	>	4c#/	>	4cc#\	>
.	.	4r	.	4r	.	4r	.
4FF#/	.	4A/	.	4d/	.	4dd\	.
=31	=31	=31	=31	=31	=31	=31	=31
4GG/	.	(4A#/	>	2f#/	.	2ff#\	.
4r	.	4B/)	.	.	.	.	.
4r	.	4G/	.	4e/	>	4ee\	>
=32	=32	=32	=32	=32	=32	=32	=32
4AA/	.	(4E/	.	2g/	.	2gg\	.
4r	.	4A/)	>	.	.	.	.
4r	.	4G/	.	4c#/	>	4cc#\	>
=33	=33	=33	=33	=33	=33	=33	=33
4DD/	.	4F#/	.	4d/	.	4dd\	.
4r	.	4r	.	4r	.	4r	.
4F#\	p	4r	.	4r	.	4r	.
=34	=34	=34	=34	=34	=34	=34	=34
(4F#\	.	2.r	.	2.r	.	2.r	.
4G\)	.	.	.	.	.	.	.
4E\	.	.	.	.	.	.	.
=35	=35	=35	=35	=35	=35	=35	=35
(4D\	.	4r	.	2.r	.	2.r	.
[2C#/)	.	4r	.	.	.	.	.
.	.	4A/	p	.	.	.	.
=36	=36	=36	=36	=36	=36	=36	=36
2.C#/]	.	(4A/	.	2.r	.	2.r	.
.	.	4B/)	.	.	.	.	.
.	.	4G/	.	.	.	.	.
=37	=37	=37	=37	=37	=37	=37	=37
[2.D\	.	(4G/	.	4r	.	2.r	.
.	.	[2F#/)	.	4r	.	.	.
.	.	.	.	4dd\	p	.	.
=38	=38	=38	=38	=38	=38	=38	=38
2.D\]	.	2.F#/]	.	4dd\	<	2.r	.
.	.	.	.	4ee\	.	.	.
.	.	.	.	4ccn\	.	.	.
=39	=39	=39	=39	=39	=39	=39	=39
[2.D#\	<	[2.f#\	<	4ccn\	.	4r	.
.	.	.	.	[2b\	.	4r	.
.	.	.	.	.	.	4bb\	p
=40	=40	=40	=40	=40	=40	=40	=40
2.D#\]	.	(2.f#\]	.	2.b\_	.	4bb\	<
.	.	.	.	.	.	4cccn\	.
.	.	.	.	.	.	4aa\	.
=41	=41	=41	=41	=41	=41	=41	=41
4E\	.	4g\)	.	4b\]	.	4gg\	.
4r	.	4r	.	4r	.	4aa\	.
4F#\	.	4a\	.	4dd#\	.	4ff#\	.
=42	=42	=42	=42	=42	=42	=42	=42
4G\	.	4g\	.	4b\	.	4ee\	.
4r	.	4r	.	4r	.	4ff#\	.
4G#\	.	4fn\	.	4b\	.	4dd\	.
=43	=43	=43	=43	=43	=43	=43	=43
[2.A\	.	(4e\	.	4a/	.	4cc#\	.
.	.	4f#\)	.	4r	.	4dd\	.
.	.	4d\	.	4r	.	4b\	.
=44	=44	=44	=44	=44	=44	=44	=44
2.A\]	.	(4c#\	.	4e/	.	4a/	.
.	.	4d\)	.	4f#/	.	4b\	.
.	.	4B/	.	4d/	.	4g/	.
=45	=45	=45	=45	=45	=45	=45	=45
[2.AA/	.	(4A/	.	4c#/	.	4f#/	.
.	.	4B/)	.	4d/	.	4g/	.
.	.	4G/	.	4B/	.	4e/	.
=46	=46	=46	=46	=46	=46	=46	=46
2AA/]	.	(4F#/	.	4A/	.	4d/	.
.	.	4G/)	.	4B/	.	4e/	.
4AA#/	.	4G/	.	4G/	.	4c#/	.
=47	=47	=47	=47	=47	=47	=47	=47
(4BB/	.	(2.F#/	.	[2.d/	.	2.d/	.
4AA#/	.	.	.	.	.	.	.
4BB/	.	.	.	.	.	.	.
=48	=48	=48	=48	=48	=48	=48	=48
4GG#/	.	2.B/)	.	2.d/_	.	(2.e/	.
4FF#/	.	.	.	.	.	.	.
4GG#/)	.	.	.	.	.	.	.
=49	=49	=49	=49	=49	=49	=49	=49
[2.AA/	.	[2.A/	.	4d/]	.	4f#/)	.
.	.	.	.	4g/	.	4b\	.
.	.	.	.	4f#/	<	4a/	<
=50	=50	=50	=50	=50	=50	=50	=50
2AA/]	<	(2A/]	<	4e/	>	4g/	.
.	.	.	.	4d/	.	4f#/	>
4AA#/	>	4A#/)	>	4c#/	.	4e/	.
=51	=51	=51	=51	=51	=51	=51	=51
(4BB/	<	(4B/	<	2.d/	<	2.dd\	<
4AA#/	.	4A#/	.	.	.	.	.
4BB/	.	4B/	.	.	.	.	.
=52	=52	=52	=52	=52	=52	=52	=52
4GG#/	.	4G#/	.	[2.d/ [2.dd/	.	(2.ee\	.
4FF#/	.	4F#/	.	.	.	.	.
4GG#/)	.	4G#/)	.	.	.	.	.
=53	=53	=53	=53	=53	=53	=53	=53
[2.AA/	p	[2.A/	p	4d/] 4dd/]	p	4ff#\)	p
.	.	.	.	4gg\	.	4bb\	.
.	.	.	.	4ff#\	.	4aa\	.
=54	=54	=54	=54	=54	=54	=54	=54
2.AA/_	.	2A/]	.	4ee\	.	4gg\	.
.	.	.	.	4dd\	.	4ff#\	.
.	.	(4g\	.	4cc#\	.	4ee\	.
=55	=55	=55	=55	=55	=55	=55	=55
2.AA/_	.	4f#\)	.	4dd\	.	4dd\	.
.	.	(4b\	.	4r	.	4r	.
.	.	4a\	.	4r	.	4r	.
=56	=56	=56	=56	=56	=56	=56	=56
2AA/]	.	4g\	.	2.r	.	4r	.
.	.	4f#\	.	.	.	4a/	.
(4G\	.	4e\	.	.	.	4cc#\	.
=57	=57	=57	=57	=57	=57	=57	=57
4F#\)	.	4d\)	.	2.r	.	4dd\	.
(4B\	.	(4g\	.	.	.	4r	.
4A\	.	4f#\	.	.	.	4r	.
=58	=58	=58	=58	=58	=58	=58	=58
4G\	.	4e\	.	4r	.	4r	.
4F#\	.	4d\	.	4r	.	4aa\	.
4F#\	.	4g\	.	4a/	.	4ccc#\	.
=59	=59	=59	=59	=59	=59	=59	=59
4D\)	<	4f#\)	<	4a/	<	4ddd\	<
4BB/	<	4d\	<	4dd\	<	4aa\	<
4AA/	.	4d\	.	4cc#\	.	4ccc#\	.
=60	=60	=60	=60	=60	=60	=60	=60
4GG/	.	4d\	.	4b\	.	4ddd\	.
4FF#/	.	4d\	.	4a/	.	4ggg\	.
4EE/	.	4A/	.	4g/	.	4ccc#\	.
=61	=61	=61	=61	=61	=61	=61	=61
4DD/	.	(2.c#\	.	[2.A/ 2.g/	.	2.eee\	.
4FF#/	.	.	.	.	.	.	.
4AA/	.	.	.	.	.	.	.
=62	=62	=62	=62	=62	=62	=62	=62
4D\	.	4d\)	.	4A/] 4f#/	.	4ddd\	.
4r	.	4r	.	4r	.	4r	.
=:|!|:	=:|!|:	=:|!|:	=:|!|:	=:|!|:	=:|!|:	=:|!|:	=:|!|:
*>C	*>C	*>C	*>C	*>C	*>C	*>C	*>C
*k[b-]	*k[b-]	*k[b-]	*k[b-]	*k[b-]	*k[b-]	*k[b-]	*k[b-]
4r	.	4r	.	4A/	p	4r	.
=63	=63	=63	=63	=63	=63	=63	=63
(2.D\	p	(2.F/	p	8A/L	.	2.f/	p
.	.	.	.	8c#/	.	.	.
.	.	.	.	8d/	.	.	.
.	.	.	.	8e/	.	.	.
.	.	.	.	8f/	.	.	.
.	.	.	.	8g/J	.	.	.
=64	=64	=64	=64	=64	=64	=64	=64
2.C/	.	2.E/	.	8a/L	.	2.e/	.
.	.	.	.	8g#/	.	.	.
.	.	.	.	8a/	.	.	.
.	.	.	.	8g#/	.	.	.
.	.	.	.	8a/	.	.	.
.	.	.	.	8g#/J	.	.	.
=65	=65	=65	=65	=65	=65	=65	=65
2.BB-/)	.	2.D/)	.	8a/L	.	2.d/	.
.	.	.	.	8dd/	.	.	.
.	.	.	.	8cc#/	.	.	.
.	.	.	.	8b-/	.	.	.
.	.	.	.	8a/	.	.	.
.	.	.	.	8g#/J	.	.	.
=66	=66	=66	=66	=66	=66	=66	=66
2.AA/	.	2.C#/	.	4a/	.	4c#/	.
.	.	.	.	4r	.	4r	.
.	.	.	.	4r	.	4a/	.
=67	=67	=67	=67	=67	=67	=67	=67
(2.D\	.	(2.F/	.	2.f/	.	8a\L	.
.	.	.	.	.	.	8cc#\	.
.	.	.	.	.	.	8dd\	.
.	.	.	.	.	.	8ee\	.
.	.	.	.	.	.	8ff\	.
.	.	.	.	.	.	8gg\J	.
=68	=68	=68	=68	=68	=68	=68	=68
2.C/	.	2.E/	.	2.e/	.	8aa\L	.
.	.	.	.	.	.	8gg#\	.
.	.	.	.	.	.	8aa\	.
.	.	.	.	.	.	8gg#\	.
.	.	.	.	.	.	8aa\	.
.	.	.	.	.	.	8gg#\J	.
=69	=69	=69	=69	=69	=69	=69	=69
2.BB-/	.	2.D/	.	2.d/	.	8aa\L	.
.	.	.	.	.	.	8ddd\	.
.	.	.	.	.	.	8ccc\	.
.	.	.	.	.	.	8bb-\	.
.	.	.	.	.	.	8aa\	.
.	.	.	.	.	.	8gg#\J	.
=70	=70	=70	=70	=70	=70	=70	=70
2.AA/)	.	2.C#/)	.	2.c#/	.	4aa\	.
.	.	.	.	.	.	4r	.
.	.	.	.	.	.	4aa\	.
=71	=71	=71	=71	=71	=71	=71	=71
(2.D\	<	(2.F/	<	2.f/	<	8aa\L	<
.	.	.	.	.	.	8bbn\	<
.	.	.	.	.	.	8ccc\	.
.	.	.	.	.	.	8bbn\	.
.	.	.	.	.	.	8aa\	.
.	.	.	.	.	.	8bbn\J	.
=72	=72	=72	=72	=72	=72	=72	=72
2.D#\)	<	2.A/)	<	2.f#/	<	8ccc\L	.
.	.	.	.	.	.	8bbn\	.
.	.	.	.	.	.	8aa\	.
.	.	.	.	.	.	8bbn\	.
.	.	.	.	.	.	8ccc\	.
.	.	.	.	.	.	8bbn\J	.
=73	=73	=73	=73	=73	=73	=73	=73
4E\	p	4c\	p	4e/	p	8aa\L	p
.	.	.	.	.	.	8ccc\	.
4r	.	4r	.	4r	.	8eee\	.
.	.	.	.	.	.	8ccc\	.
4EE/	.	4d\	.	4e/	.	8bbn\	.
.	.	.	.	.	.	8gg#\J	.
=74	=74	=74	=74	=74	=74	=74	=74
4AA/	.	4c\	.	4e/	.	4aa\	.
4r	.	4r	.	4r	.	4r	.
=:|!	=:|!	=:|!	=:|!	=:|!	=:|!	=:|!	=:|!
*>D	*>D	*>D	*>D	*>D	*>D	*>D	*>D
4r	.	4r	.	4G/	p	4r	.
=75	=75	=75	=75	=75	=75	=75	=75
(2.C/	p	(2.E-/	p	8G/L	.	2.e-/	p
.	.	.	.	8Bn/	.	.	.
.	.	.	.	8c/	.	.	.
.	.	.	.	8d/	.	.	.
.	.	.	.	8e/	.	.	.
.	.	.	.	8f/J	.	.	.
=76	=76	=76	=76	=76	=76	=76	=76
2.BB-/	.	2.D/	.	8g/L	.	2.d/	.
.	.	.	.	8f#/	.	.	.
.	.	.	.	8g/	.	.	.
.	.	.	.	8f#/	.	.	.
.	.	.	.	8g/	.	.	.
.	.	.	.	8f#/J	.	.	.
=77	=77	=77	=77	=77	=77	=77	=77
2.AA/	.	2.C/	.	8g/L	.	2.c/	.
.	.	.	.	8cc/	.	.	.
.	.	.	.	8b-/	.	.	.
.	.	.	.	8a/	.	.	.
.	.	.	.	8g/	.	.	.
.	.	.	.	8f#/J	.	.	.
=78	=78	=78	=78	=78	=78	=78	=78
2.GG/)	.	2.D/)	.	4g/	.	4B-/	.
.	.	.	.	4r	.	4r	.
.	.	.	.	4r	.	4d/	.
=79	=79	=79	=79	=79	=79	=79	=79
(2.G\	.	(2.B-/	.	2.b-\	.	8d/L	.
.	.	.	.	.	.	8f#/	.
.	.	.	.	.	.	8g#/	.
.	.	.	.	.	.	8a/	.
.	.	.	.	.	.	8b-/	.
.	.	.	.	.	.	8cc/J	.
=80	=80	=80	=80	=80	=80	=80	=80
2.F\	.	2.A/	.	2.a/	.	8dd\L	.
.	.	.	.	.	.	8cc#\	.
.	.	.	.	.	.	8dd\	.
.	.	.	.	.	.	8cc#\	.
.	.	.	.	.	.	8dd\	.
.	.	.	.	.	.	8cc#\J	.
=81	=81	=81	=81	=81	=81	=81	=81
2.E\	.	2.G/	.	2.g/	.	8dd\L	.
.	.	.	.	.	.	8gg\	.
.	.	.	.	.	.	8ff\	.
.	.	.	.	.	.	8ee\	.
.	.	.	.	.	.	8dd\	.
.	.	.	.	.	.	8cc#\J	.
=82	=82	=82	=82	=82	=82	=82	=82
2.D\)	.	2.F/)	.	2.f/	.	4dd\	.
.	.	.	.	.	.	4r	.
.	.	.	.	.	.	4a/	.
=83	=83	=83	=83	=83	=83	=83	=83
(2.D\	.	(2.f\	.	2.ff\	.	8a\L	.
.	.	.	.	.	.	8cc#\	.
.	.	.	.	.	.	8dd\	.
.	.	.	.	.	.	8ee\	.
.	.	.	.	.	.	8ff\	.
.	.	.	.	.	.	8gg\J	.
=84	=84	=84	=84	=84	=84	=84	=84
2.C/	.	2.e\	.	2.ee\	.	8aa\L	.
.	.	.	.	.	.	8gg#\	.
.	.	.	.	.	.	8aa\	.
.	.	.	.	.	.	8gg#\	.
.	.	.	.	.	.	8aa\	.
.	.	.	.	.	.	8gg#\J	.
=85	=85	=85	=85	=85	=85	=85	=85
2.BB-/	.	2.d\	.	2.dd\	.	8aa\L	.
.	.	.	.	.	.	8ddd\	.
.	.	.	.	.	.	8ccc\	.
.	.	.	.	.	.	8bb-\	.
.	.	.	.	.	.	8aa\	.
.	.	.	.	.	.	8gg#\J	.
=86	=86	=86	=86	=86	=86	=86	=86
2.AA/)	.	2.c#\)	.	2.cc#\	.	4aa\	.
.	.	.	.	.	.	4r	.
.	.	.	.	.	.	4aa\	.
=87	=87	=87	=87	=87	=87	=87	=87
(2.BB-/	.	(2.d\	.	2.dd\	.	8aa\L	.
.	.	.	.	.	.	8ddd\	.
.	.	.	.	.	.	8ccc\	.
.	.	.	.	.	.	8bb-\	.
.	.	.	.	.	.	8aa\	.
.	.	.	.	.	.	8gg#\J	.
=88	=88	=88	=88	=88	=88	=88	=88
2.AA/)	.	2.c#\)	.	2.cc#\	.	4aa\	.
.	.	.	.	.	.	4r	.
.	.	.	.	.	.	4aa\	.
=89	=89	=89	=89	=89	=89	=89	=89
[2.BB-/	<	(2.d\	<	2.dd\	<	8aa\L	<
.	.	.	.	.	.	8ddd\	<
.	.	.	.	.	.	8ccc\	.
.	.	.	.	.	.	8bb-\	.
.	.	.	.	.	.	8aa\	.
.	.	.	.	.	.	8gg#\J	.
=90	=90	=90	=90	=90	=90	=90	=90
2.BB-/]	<	2.D/)	<	2.d/	<	8aa\L	.
.	.	.	.	.	.	8gg#\	.
.	.	.	.	.	.	8aa\	.
.	.	.	.	.	.	8gg#\	.
.	.	.	.	.	.	8aa\	.
.	.	.	.	.	.	8gg#\J	.
=91	=91	=91	=91	=91	=91	=91	=91
4AA/	p	4E/	p	4c#/	p	4aa\	p
4r	.	4r	.	4r	.	4r	.
4r	.	4r	.	4r	.	4r	.
=92	=92	=92	=92	=92	=92	=92	=92
2.r	.	2.r	.	2.r	.	4ccc#\	>
.	.	.	.	.	.	4r	.
.	.	.	.	.	.	4r	.
=93	=93	=93	=93	=93	=93	=93	=93
2.r	.	2.r	.	2.r	.	4eee\	.
.	.	.	.	.	.	4r	.
.	.	.	.	.	.	4r	.
=94	=94	=94	=94	=94	=94	=94	=94
2.r	.	2.r	.	2.r	.	4fff#\	.
.	.	.	.	.	.	4r	.
.	.	.	.	.	.	4r	.
=95	=95	=95	=95	=95	=95	=95	=95
4G\	pp	4g\	pp	2.r	.	4ggg\	pp
4r	.	4r	.	.	.	4r	.
4r	.	4r	.	.	.	4r	.
=96	=96	=96	=96	=96	=96	=96	=96
4E\	.	4e\	.	2.r	.	2.r	.
4r	.	4r	.	.	.	.	.
4r	.	4r	.	.	.	.	.
=97	=97	=97	=97	=97	=97	=97	=97
4C#/	.	4c#\	.	2.r	.	2.r	.
4r	.	4r	.	.	.	.	.
4r	.	4r	.	.	.	.	.
=98	=98	=98	=98	=98	=98	=98	=98
4AA/	.	4A/	.	2.r	.	4r	.
4r	.	4r	.	.	.	4r	.
4r	.	4r	.	.	.	4f#/	p
=99	=99	=99	=99	=99	=99	=99	=99
*k[f#c#]	*k[f#c#]	*k[f#c#]	*k[f#c#]	*k[f#c#]	*k[f#c#]	*k[f#c#]	*k[f#c#]
(2.D\	p	(2.d\	p	2A/	p	[2.f#/	.
.	.	.	.	4A#/	.	.	.
=100	=100	=100	=100	=100	=100	=100	=100
[2.GG/)	.	2.G/)	.	2.B/	.	4f#/]	.
.	.	.	.	.	.	4g/	.
.	.	.	.	.	.	4e/	.
=101	=101	=101	=101	=101	=101	=101	=101
4GG/]	.	4E/	.	4A/	.	4d/	.
4GG/	.	(4E/	.	4A/	.	4c#/	.
8FF#/L	.	4F#/)	.	4A/	.	4d/	.
8CC#/J	.	.	.	.	.	.	.
=102	=102	=102	=102	=102	=102	=102	=102
4AA/	.	4A/	.	4d/	.	4f#/	.
4r	.	4r	.	4c#/	.	4e/	.
4r	.	4r	.	4r	.	4f#/	.
=103	=103	=103	=103	=103	=103	=103	=103
(2.D\	.	(2.d\	.	2.A/	.	2f#/	.
.	.	.	.	.	.	[4g/	<
=104	=104	=104	=104	=104	=104	=104	=104
2BB/)	<	2B/)	<	2d/	>	4g/]	.
.	.	.	.	.	.	4f#/	>
4BB/	.	4B/	.	4d/	.	4e#/	.
=105	=105	=105	=105	=105	=105	=105	=105
4AA/	.	4A/	.	4c#/	.	2f#/	.
4FF#/	.	(4A/	.	4c#/	.	.	.
4C#/	.	4B/)	.	4e#/	.	8a/L	.
.	.	.	.	.	.	8g#/J	.
=106	=106	=106	=106	=106	=106	=106	=106
4FF#/	.	4A/	.	4f#/	.	4f#/	.
4r	.	4r	.	4r	.	4r	.
4r	.	4r	.	4f#/	.	4ff#\	.
=107	=107	=107	=107	=107	=107	=107	=107
(2.D\	.	(2A/	.	[2.f#/	.	[2.ff#\	.
.	.	4A#/)	.	.	.	.	.
=108	=108	=108	=108	=108	=108	=108	=108
2GG/)	.	2B/	.	4f#/]	.	4ff#\]	.
.	.	.	.	4g/	.	4gg\	.
[4G\	.	4B/	.	4fn/	.	4ee\	.
=109	=109	=109	=109	=109	=109	=109	=109
4G\]	.	4A/	.	4d/	.	4dd\	.
4G\	.	4A/	.	4c#/	.	4cc#\	.
8F#\L	.	4A/	.	4d/	.	4dd\	.
8D\J	.	.	.	.	.	.	.
=110	=110	=110	=110	=110	=110	=110	=110
4A\	.	(4d\	.	4f#/	.	4ff#\	.
4r	.	4c#\)	.	4e/	.	4ee\	.
4r	.	4r	.	4f#/	.	4ff#\	.
=111	=111	=111	=111	=111	=111	=111	=111
(2.D\	.	(2.A/	.	2f#/	<	2ff#\	.
.	.	.	.	[4g/	>	[4gg\	<
=112	=112	=112	=112	=112	=112	=112	=112
2.BB/)	<	2.d\)	<	4g/]	.	4gg\]	>
.	.	.	.	4f#/	.	4ff#\	.
.	.	.	.	4e#/	.	4ee#\	.
=113	=113	=113	=113	=113	=113	=113	=113
4AA/	.	4c#\	.	2f#/	.	2ff#\	.
4FF#/	.	(4c#\	.	.	.	.	.
4C#/	.	4e#\)	.	8a/L	.	8aa\L	.
.	.	.	.	8g#/J	.	8gg#\J	.
=114	=114	=114	=114	=114	=114	=114	=114
4FF#/	.	4f#\	.	4f#/	.	4ff#\	.
4r	.	4r	.	4r	.	4r	.
4r	.	[4f#\	.	[4a/	.	[4aa\	.
=115	=115	=115	=115	=115	=115	=115	=115
(2B\	.	4f#\]	.	4a/]	.	4aa\]	.
.	.	(4e\	.	4g/	.	4gg\	.
4A\	.	4d#\	.	4f#/	.	4ff#\	.
=116	=116	=116	=116	=116	=116	=116	=116
4G\	.	4e\	.	4g/	.	4gg\	.
4F#\	.	4f#\	.	4a/	.	4aa\	.
4E\)	.	4g\	.	4b\	.	4bb\	.
=117	=117	=117	=117	=117	=117	=117	=117
[2.D\	.	4a\	.	4ccn\	.	4cccn\	.
.	.	4b\	.	4dd\	.	4ddd\	.
.	.	4ccn\)	.	4ee\	.	4eee\	.
=118	=118	=118	=118	=118	=118	=118	=118
2D\]	.	2f#\	.	2a/	.	2aa\	.
4r	.	4r	.	4b\	pp	4bb\	pp
=119	=119	=119	=119	=119	=119	=119	=119
2.G\	pp	(2d\	pp	[2.b\	.	[2.bb\	.
.	.	4d#\)	.	.	.	.	.
=120	=120	=120	=120	=120	=120	=120	=120
[2.Cn/	.	2.e\	.	4b\]	.	4bb\]	.
.	.	.	.	4ccn\	.	4cccn\	.
.	.	.	.	4a/	.	4aa\	.
=121	=121	=121	=121	=121	=121	=121	=121
4C/]	.	(4A/	.	4g/	.	4gg\	.
4Cn/	.	4d\)	.	4f#/	.	4ff#\	.
8BB/L	.	4d\	.	4g/	.	4gg\	.
8GG/J	.	.	.	.	.	.	.
=122	=122	=122	=122	=122	=122	=122	=122
4D\	.	(4g\	.	4b\	.	4bb\	.
4r	.	4f#\)	.	4a/	.	4aa\	.
4F#\	.	4d\	.	4a#/	.	4aa#\	.
=123	=123	=123	=123	=123	=123	=123	=123
4G\	.	4d\	.	4ccn\	.	4cccn\	.
4r	.	4r	.	4b\	.	4bb\	.
4E\	.	4g\	.	4cc#\	.	4ccc#\	.
=124	=124	=124	=124	=124	=124	=124	=124
4F#\	.	4a\	.	4ee\	.	4eee\	.
4r	.	4r	.	4dd\	.	4ddd\	.
4C#/	.	4a\	.	4ee\	.	4eee\	.
=125	=125	=125	=125	=125	=125	=125	=125
4D\	.	4a\	.	4gg\	.	4ggg\	.
4r	.	4r	.	4ff#\	.	4fff#\	.
4E\	.	4d\ 4dd\	.	4gg\	.	4ggg\	.
=126	=126	=126	=126	=126	=126	=126	=126
(2.E#\	<	[2.d\ [2.dd\	<	[2.gg#\	<	[2.ggg#\	<
=127	=127	=127	=127	=127	=127	=127	=127
[2.F#\)	<	2.d\_ 2.dd\_	<	2.gg#\]	<	2.ggg#\]	<
=128	=128	=128	=128	=128	=128	=128	=128
2F#\]	p	2d\] 2dd\]	p	2aa\	p	2aaa\	p
4r	.	4r	.	4a#/	.	4aa#\	.
=129	=129	=129	=129	=129	=129	=129	=129
2.r	.	2.r	.	2.a#/	.	2.aa#\	.
=130	=130	=130	=130	=130	=130	=130	=130
2.r	.	2.r	.	4b\	.	4bb\	.
.	.	.	.	4g/	.	4gg\	.
.	.	.	.	4f#/	.	4ff#\	.
=131	=131	=131	=131	=131	=131	=131	=131
(2.G\	.	(2.B/	.	2.e#/	.	2.ee#\	.
=132	=132	=132	=132	=132	=132	=132	=132
4F#\)	<	4A#/)	<	4f#/	<	4ff#\	<
4r	.	4r	.	4r	.	4r	.
4r	.	4r	.	4a#/	.	4aa#\	.
=133	=133	=133	=133	=133	=133	=133	=133
2.r	.	2.r	.	2.a#/	.	2.aa#\	.
=134	=134	=134	=134	=134	=134	=134	=134
2.r	.	2.r	.	4b\	.	4bb\	.
.	.	.	.	4g/	.	4gg\	.
.	.	.	.	4e/	.	4ee\	.
=135	=135	=135	=135	=135	=135	=135	=135
[2.GG/	.	[2.A/	<	2.d/	.	2.dd\	<
=136	=136	=136	=136	=136	=136	=136	=136
2GG/]	<	4A/]	>	4c#/	<	4cc#\	>
.	.	4r	.	4r	.	4r	.
4FF#/	.	4A/	.	4d/	.	4dd\	.
=137	=137	=137	=137	=137	=137	=137	=137
4GG/	.	(4A#/	>	2f#/	.	2ff#\	.
4r	.	4B/)	.	.	.	.	.
4r	.	4G/	.	4e/	>	4ee\	>
=138	=138	=138	=138	=138	=138	=138	=138
4AA/	.	(4E/	>	2g/	>	2gg\	.
4r	.	4A/)	.	.	.	.	.
4r	.	4G/	.	4c#/	.	4cc#\	>
=139	=139	=139	=139	=139	=139	=139	=139
4D\	.	4F#/	.	4d/	.	4dd\	.
4r	.	4r	.	4r	.	4r	.
4F#\	p	4r	.	4r	.	4r	.
=140	=140	=140	=140	=140	=140	=140	=140
(4F#\	.	2.r	.	2.r	.	2.r	.
4G\)	.	.	.	.	.	.	.
4E\	.	.	.	.	.	.	.
=141	=141	=141	=141	=141	=141	=141	=141
(4D\	.	4r	.	2.r	.	2.r	.
[2C#/)	.	4r	.	.	.	.	.
.	.	4A/	p	.	.	.	.
=142	=142	=142	=142	=142	=142	=142	=142
2.C#/]	.	(4A/	.	2.r	.	2.r	.
.	.	4B/)	.	.	.	.	.
.	.	4G/	.	.	.	.	.
=143	=143	=143	=143	=143	=143	=143	=143
[2.D\	.	(4G/	.	4r	.	2.r	.
.	.	[2F#/)	.	4r	.	.	.
.	.	.	.	4dd\	p	.	.
=144	=144	=144	=144	=144	=144	=144	=144
2.D\]	.	2.F#/]	.	4dd\	.	2.r	.
.	.	.	.	4ee\	.	.	.
.	.	.	.	4ccn\	.	.	.
=145	=145	=145	=145	=145	=145	=145	=145
[2.D#\	<	[2.f#\	<	4ccn\	<	4r	.
.	.	.	.	[2b\	<	4r	.
.	.	.	.	.	.	4bb\	p
=146	=146	=146	=146	=146	=146	=146	=146
(2.D#\]	<	2.f#\]	<	2.b\_	.	4bb\	<
.	.	.	.	.	.	4cccn\	<
.	.	.	.	.	.	4aa\	.
=147	=147	=147	=147	=147	=147	=147	=147
4E\)	.	4g\	.	4b\]	.	4gg\	.
4r	.	4r	.	4r	.	4aa\	.
4F#\	.	4a\	.	4dd#\	.	4ff#\	.
=148	=148	=148	=148	=148	=148	=148	=148
4G\	.	4g\	.	4b\	.	4ee\	.
4r	.	4r	.	4r	.	4ff#\	.
4G#\	.	4fn\	.	4b\	.	4dd\	.
=149	=149	=149	=149	=149	=149	=149	=149
[2.A\	.	(4e\	.	4a/	.	4cc#\	.
.	.	4f#\)	.	4r	.	4dd\	.
.	.	4d\	.	4r	.	4b\	.
=150	=150	=150	=150	=150	=150	=150	=150
2.A\]	.	(4c#\	.	4e/	.	4a/	.
.	.	4d\)	.	4f#/	.	4b\	.
.	.	4B/	.	4d/	.	4g/	.
=151	=151	=151	=151	=151	=151	=151	=151
[2.AA/	.	(4A/	.	4c#/	.	4f#/	.
.	.	4B/)	.	4d/	.	4g/	.
.	.	4G/	.	4B/	.	4e/	.
=152	=152	=152	=152	=152	=152	=152	=152
2AA/]	.	(4F#/	.	4A/	.	4d/	.
.	.	4G/)	.	4B/	.	4e/	.
4AA#/	.	4G/	.	4G/	.	4c#/	.
=153	=153	=153	=153	=153	=153	=153	=153
(4BB/	.	(2.F#/	.	[2.d/	.	2.d/	.
4AA#/	.	.	.	.	.	.	.
4BB/	.	.	.	.	.	.	.
=154	=154	=154	=154	=154	=154	=154	=154
4GG#/	.	2.B/)	.	2.d/_	.	(2.e/	.
4FF#/	.	.	.	.	.	.	.
4GG#/)	.	.	.	.	.	.	.
=155	=155	=155	=155	=155	=155	=155	=155
[2.AA/	.	[2.A/	.	4d/]	.	4f#/)	.
.	.	.	.	4g/	<	4b\	<
.	.	.	.	4f#/	.	4a/	.
=156	=156	=156	=156	=156	=156	=156	=156
(2AA/]	<	(2A/]	<	4e/	>	4g/	>
.	.	.	.	4d/	.	4f#/	.
4AA#/)	>	4A#/)	>	4c#/	.	4e/	.
=157	=157	=157	=157	=157	=157	=157	=157
(4BB/	<	(4B/	<	2.d/	<	2.dd\	<
4AA#/	<	4A#/	<	.	.	.	.
4BB/	.	4B/	.	.	.	.	.
=158	=158	=158	=158	=158	=158	=158	=158
4GG#/	.	4G#/	.	[2.d/ [2.dd/	<	2.ee\	<
4FF#/	.	4F#/	.	.	.	.	.
4GG#/)	.	4G#/)	.	.	.	.	.
=159	=159	=159	=159	=159	=159	=159	=159
[2.AA/	p	[2.A/	p	4d/] 4dd/]	p	4ff#\	p
.	.	.	.	4gg\	.	4bb\	.
.	.	.	.	4ff#\	.	4aa\	.
=160	=160	=160	=160	=160	=160	=160	=160
2.AA/_	.	2A/]	.	4ee\	.	4gg\	.
.	.	.	.	4dd\	.	4ff#\	.
.	.	(4g\	.	4cc#\	.	4ee\	.
=161	=161	=161	=161	=161	=161	=161	=161
2.AA/_	.	4f#\)	.	4dd\	.	4dd\	.
.	.	(4b\	.	4r	.	4r	.
.	.	4a\	.	4r	.	4r	.
=162	=162	=162	=162	=162	=162	=162	=162
2AA/]	.	4g\	.	2.r	.	4r	.
.	.	4f#\	.	.	.	4a/	.
(4G\	.	4e\	.	.	.	4cc#\	.
=163	=163	=163	=163	=163	=163	=163	=163
4F#\)	.	4d\)	.	2.r	.	4dd\	.
(4B\	.	(4g\	.	.	.	4r	.
4A\	.	4f#\	.	.	.	4r	.
=164	=164	=164	=164	=164	=164	=164	=164
4G\	.	4e\	.	4r	.	4r	.
4F#\	.	4d\	.	4r	.	4aa\	.
4E\	.	4g\)	.	4a/	.	4ccc#\	.
=165	=165	=165	=165	=165	=165	=165	=165
4D\)	<	4f#\	<	4a/	<	4ddd\	<
(4BB/	<	4d\	<	4dd\	<	4aa\	<
4AA/	.	4d\	.	4cc#\	.	4ccc#\	.
=166	=166	=166	=166	=166	=166	=166	=166
4GG/	.	4d\	.	4b\	.	4ddd\	.
4FF#/	.	4d\	.	4a/	.	4ggg\	.
4EE/)	.	4A/	.	4g/	.	4ccc#\	.
=167	=167	=167	=167	=167	=167	=167	=167
4DD/	.	(2.c#\	.	[2.A/ 2.g/	.	2.eee\	.
4FF#/	.	.	.	.	.	.	.
4AA/	.	.	.	.	.	.	.
=168	=168	=168	=168	=168	=168	=168	=168
4D\	.	4d\)	.	4A/] 4f#/	.	4ddd\	.
4r	.	4r	.	4r	.	4r	.
==	==	==	==	==	==	==	==
*-	*-	*-	*-	*-	*-	*-	*-
!!!ENC: Craig Stuart Sapp
!!!END: 2006/03/11/
